X: 205
T: Mulqueen's Reel
R: reel
Z: 2012 John Chambers <jc:trillian.mit.edu>
S: printed MS from Jump Start repertoire
M: C|
L: 1/8
K: D
BAG |\
"A7"F2EG "D"FDDG | "A7"FDAG "D"FDDE | "A7"F2EG "D"FDDG | "A7"FABc "D"dy :::|
|: dcd |\
"A"e2-e2 efed | "A"cdef "G"g2fg |\
[1,3 "A"a2e2 efed | "A7"cABc "D"d :|\
[2,4 "D"a2f2 "A7"g2e2 | "A7"dfec "D"d :|

